X:1
T:The Star of Bethlehem (Funk), LMD
T:The Star of Bethlehem (Funk), LMD
T:Joseph Funk, 1847
T:Public Domain Courtesy of the Cyber Hymnal™
C:Joseph Funk, 1847
Z:Public Domain
Z:Courtesy of the Cyber Hymnal™
%%score ( 1 2 ) ( 3 4 )
L:1/8
Q:1/4=105
M:2/4
K:D
V:1 treble 
V:2 treble 
V:3 bass 
V:4 bass 
V:1
|: (D>F) | [DA]2 [DA]2 | [DA]2 ([Ad][Ge]) | [Ff]2 [Df]2 | [Ff]2 (ed) | ([GB][EG]) ([Ae][Gd]) | %6
 ([GB][EG]) (EF) | D2 D2 | !fermata!D2"^Play 2 times" :| ([Df]>[Eg]) | ([Fa][Eg]) ([Df]>[Eg]) | %11
 [Ea]3 [EA] | ([Gd][Fc]) ([Gd][Ae]) | [Af]3 [DF] | ([EG][DF]) ([EG][FA]) | ([GB][FA]) ([EG][DF]) | %16
 D2 E2 | [CE]2 (D>F) | [FA]2 [FA]2 | [FA]2 ([Ad][Ge]) | [Ff]2 [Df]2 | [Ff]2 (ed) | %22
 ([GB][EG]) ([Ae][Gd]) | ([GB][EG]) (EF) | D2 D2 | !fermata!D2 |] %26
V:2
|: D2 | x4 | x4 | x4 | x2 A2 | x4 | x2 C2 | D2 D2 | D2 :| x2 | x4 | x4 | x4 | x4 | x4 | x4 | %16
 D2 (ED) | x2 D2 | x4 | x4 | x4 | x2 A2 | x4 | x2 C2 | D2 D2 | D2 |] %26
V:3
|: (D,>F,) | [D,A,]2 [D,D]2 | [D,D]2 ([D,D][A,C]) | [B,C]2 [B,C]2 | [B,C]2 A,[F,B,] | B,2 B,2 | %6
 B,2 ([A,B,][F,A,]) | A,2 [A,,A,]2 | !fermata![D,A,]2"^Play 2 times" :| [D,D]2 | [D,D]2 [D,D]2 | %11
 [A,E]3 [A,E] | (B,C) (DC/B,/) | [F,A,]3 [F,A,] | [E,B,]2 [E,B,]2 | (B,E) ([E,E][F,B,]) | %16
 [G,E]2 (EB,) | [C,E]2 (A,>F,) | [D,A,]2 [D,D]2 | [D,D]2 ([D,D][A,C]) | [B,D]2 [B,D]2 | %21
 [B,D]2 A,[F,B,] | B,2 B,2 | B,2 ([A,B,][F,A,]) | A,2 [A,,A,]2 | !fermata![D,A,]2 |] %26
V:4
|: D,2 | x4 | x4 | x4 | x2 A, x | (E,D,) (E,F,) | (G,B,) x2 | A,2 x2 | x2 :| x2 | x4 | x4 | %12
 G,2 G,2 | x4 | x4 | E,2 x2 | x2 B,2 | x2 D,2 | x4 | x4 | x4 | x2 A, x | (E,D,) (E,F,) | %23
 (G,B,) x2 | A,2 x2 | x2 |] %26

